X:1
T:Saria's Song
M:4/4
L:1/8
Q:1/4=150
K:Gmaj
C E F2 C E F2 | C E F BA2 F G | F D B,2-B,3 A, |
B, D B,6 | C E F2 C E F2 | C E F B A2 F G |
B F D2-D3 F | D A, B,6 | A, B, C2 D E F2 |
G F B,6 | C D E2 F G A2 | B c d6 | A, B, C2 D E F2 | G F B,6 |
"2" C B, E D F E G F | A G B A d c F/2 G E/2 | F8 | z4 z2 F2 | C E F2 C E F2 | C E F B A2 F G |
F D B,2-B,3 A, | B, D B,6 | C E F2 C E F2 | C E F B A2 FG |
B F D2-D3 F | D A, B,6 | A, B, C2 D E F2 | G F B,6 | C D E2 F G A2 |
B c d6 | A, B, C2 D E F2 | G F B,6 | C B, E D F E G F |
A G B A d c F/2 G E/2 | F4 z4 |]
